X:720
T:Sweets of May, The
M:6/8
R:SetDance
K:D
a/2g/2|"D"fed "A7"ecA|"D"ded d2e|~f3 def|"G"~g3 "A7"a2g|\
"D"fed "A7"ecA|"D"ded d2e|~f3 "A7"gfe|1 "D"d3 d3:|2 d3 dcd|:\
"Em"~e3 e2d|"Bm"B2c d3|"Em"~e3 g2a|"Bm"b2a g2f|\
"Em"~e3 e2d|"Bm"B2c d3|"Em"~e3 "D"fed|1 "Em"e3 eaf:|2 e3 efg|:\
"D"a2z a2z|"A7"A2z A2z|"G"g2z g2z|"A7"A2z A2z|\
"D7"d2A d2e|f2d efg|"A7"a2a ABc|1 "D"d3 dfg:|2 d3 d3||
